src/symbolic/places/folder-videos-symbolic.svg

<svg width="16" height="16" version="1.1" viewBox="0 0 16 16" xmlns="http://www.w3.org/2000/svg">
 <defs>
  <style id="current-color-scheme" type="text/css">.ColorScheme-Text { color:#555555; } .ColorScheme-Highlight { color:#5294e2; }</style>
 </defs>
 <path style="fill:currentColor" class="ColorScheme-Text" d="m3 1c-1.108 0-2 0.892-2 2v10c0 1.108 0.892 2 2 2h10c1.108 0 2-0.892 2-2v-10c0-1.108-0.892-2-2-2h-2l1 4h-1l-1-4h-2l1 4h-1l-1-4h-2l1 4h-1l-1-4h-1zm0 5h10v7h-10v-7z"/>
</svg>

<svg width="16" height="16" xmlns="http://www.w3.org/2000/svg"><defs><style id="current-color-scheme" type="text/css">.ColorScheme-Highlight{color:#5294e2}</style></defs><path style="fill:currentColor;color:#555" d="M3 1c-1.108 0-2 .892-2 2v10c0 1.108.892 2 2 2h10c1.108 0 2-.892 2-2V3c0-1.108-.892-2-2-2h-2l1 4h-1l-1-4H8l1 4H8L7 1H5l1 4H5L4 1H3zm0 5h10v7H3V6z"/></svg>
